public/d20.svg

<svg class="die-svg" width="80" height="94" viewBox="-8 0 96 94">
<path class="face" d="M1 69.8771V23.6201L40 2L79 23.6201V69.8771L40 92L1 69.8771Z" />
<path class="edges" d="M1 69.8771V23.6201M1 69.8771L40 92M1 69.8771L13.1558 62.838M1 23.6201L40 2M1 23.6201L40 14.067M1 23.6201L13.1558 62.838M40 2L79 23.6201M40 2V14.067M79 23.6201V69.8771M79 23.6201L40 14.067M79 23.6201L67.3506 62.838M79 69.8771L40 92M79 69.8771L67.3506 62.838M40 92L67.3506 62.838M40 92L13.1558 62.838M40 14.067L13.1558 62.838M40 14.067L67.3506 62.838M67.3506 62.838H13.1558"  />
</svg>

<svg width="80" height="94" class="die-svg" viewBox="-8 0 96 94"><path d="M1 69.877V23.62L40 2l39 21.62v46.257L40 92 1 69.877Z" class="face"/><path d="M1 69.877V23.62m0 46.257L40 92M1 69.877l12.156-7.039M1 23.62 40 2M1 23.62l39-9.553M1 23.62l12.156 39.218M40 2l39 21.62M40 2v12.067m39 9.553v46.257m0-46.257-39-9.553m39 9.553L67.35 62.838M79 69.878 40 92m39-22.123-11.65-7.039M40 92l27.35-29.162M40 92 13.156 62.838M40 14.067 13.156 62.838M40 14.067l27.35 48.771m0 0H13.157" class="edges"/></svg>
